X:1
T:If I Could Hear My Mother Pray Again
T:If I Could Hear My Mother Pray Again
T:James Whitfield Vaughan
T:James Rowe, 1922
T:Public Domain Courtesy of the Cyber Hymnal™
T:Public Domain Courtesy of the Cyber Hymnal™
C:James Whitfield Vaughan
Z:Public Domain
Z:Courtesy of the Cyber Hymnal™
%%score ( 1 2 ) ( 3 4 )
L:1/8
Q:1/4=90
M:4/4
K:Bb
V:1 treble 
V:2 treble 
V:3 bass 
V:4 bass 
V:1
 [DF] | [DB]>[DB] [EB][DB] [Fd]3 [FB] | [EG]>[Gc] [GB][EG] [DF]3 [DF] | %3
w: 1.~How|sweet and hap- py seem those|days of which I dream, When|
w: 2.~She|used to pray that I on|Je- sus would re- ly, And|
w: 3.~With-|in the old home place, her|pa- tient, smil- ing face Was|
w: 4.~Her|work on earth is done, the|life crown has been won, And|
 [DB]>[EA] [FB][Fc] [Fd]<[FB] [=EG][Ed] | [Fc]6 z [EF] | [DB]>[DB] [EB][DB] [Fd]3 [FB] | %6
w: mem- o- ry re- calls them now and|then! And|with what rap- ture sweet my|
w: al- ways walk the shin- ing Gos- pel|way; So|trust- ing still His love, I|
w: al- ways spread- ing com- fort, hope and|cheer; And|when she used to sing to|
w: she will be at rest with Him a-|bove; And|some glad morn- ing, she I|
 [EG]>[Gc] [GB][EG] [DF]3 [DF] | [DB]>[EA] [FB][Gc] [Fd]<!fermata![DB] !fermata![Fc][Fd] | B6 z || %9
w: wea- ry heart would beat, If|I could hear my mo- ther pray a-|gain.|
w: seek that home a- bove, Where|I shall meet my mo- ther some glad|day.|
w: her e- ter- nal king, It|was the songs the an- gels loved to|hear.|
w: know will wel- come me To|that e- ter- nal home of peace and|love.|
"^Refrain" [DF] | d2 d2 [=Fd]3 [^Fc] | [GB]>[Gc] [GB][EG] [DF]3 F | B2 B2 [DB]3 [Fd] | %13
w: ||||
w: If|I could hear my|mo- ther pray a- gain, If|I could hear her|
w: ||||
w: ||||
 [=Ec][EG][Ec][Ed] [_Ec]3 F | d2 d2 [=Fd]3 [^Fc] | [GB]>[Gc] [GB][EG] [DF]3 [DF] | %16
w: |||
w: ten- der voice as then! So|glad I’d be, ’twould|mean so much to me, If|
w: |||
w: |||
 [DB]>[EA] [FB][Gc] [Fd]<!fermata![DB] !fermata![Fc][Fd] | B6 z |] %18
w: ||
w: I could hear my mo- ther pray a-|gain.|
w: ||
w: ||
V:2
 x | x8 | x8 | x8 | x8 | x8 | x8 | x8 | (D2 ^C2 D2) x || x | (^FG) (BG) x4 | x7 F | (DD) (EE) x4 | %13
 x7 F | (^FG) (BG) x4 | x8 | x8 | (D2 ^C2 D2) x |] %18
V:3
 [B,,B,] | [B,,F,]>[B,,F,] [B,,G,][B,,F,] [B,,B,]3 [D,B,] | %2
w: ~|~ ~ ~ ~ ~ ~|
 [E,B,]>[E,B,] [E,B,][E,B,] [B,,B,]3 [B,,B,] | %3
w: ~ ~ ~ ~ ~ ~|
 [B,,F,]>[C,F,] [D,B,][F,A,] [B,,B,]<[B,,D] [C,C][C,B,] | [F,A,]6 z [F,A,] | %5
w: ~ ~ ~ ~ ~ ~ ~ ~|~ ~|
 [B,,B,]>[B,,F,] [B,,G,][B,,F,] [B,,B,]3 [D,B,] | [E,B,]>[E,B,] [E,B,][E,B,] [B,,B,]3 [B,,B,] | %7
w: ~ ~ ~ ~ ~ ~|~ ~ ~ ~ ~ ~|
 [B,,F,]>[C,F,] [D,B,][E,B,] [F,B,]<!fermata![F,B,] !fermata![F,A,][F,A,] | (B,F, G,2 F,2) z || %9
w: ~ ~ ~ ~ ~ ~ ~ ~|~ * * *|
 [B,,B,] | [B,,B,]2 [B,,B,]2 B,3 [D,B,] | [E,B,]>[E,B,] [E,B,][E,B,] [B,,B,]3 [B,,D] | %12
w: If|I could on- ly|hear ~ ~ ~ ~ ~|
 B,F,G,G, [B,,F,]3 [B,,B,] | [C,G,][C,C][C,B,][C,B,] [F,A,]3 [F,A,] | %14
w: ~ If I could on- ly|~ ~ ~ ~ ~ ~|
 [B,,B,]2 [B,,B,]2 B,3 [D,B,] | [E,B,]>[E,B,] [E,B,][E,B,] [B,,B,]3 [B,,B,] | %16
w: ~ So hap- py|I should be * * *|
 [B,,F,]>[C,F,] [D,B,][E,B,] [F,B,]<!fermata![F,B,] !fermata![F,A,][F,A,] | (B,F, G,2 F,2) z |] %18
w: ||
V:4
 x | x8 | x8 | x8 | x8 | x8 | x8 | x8 | B,,6 x || x | x4 D,F,B,, x | x8 | B,,2 B,,2 x4 | x8 | %14
 x4 D,F,B,, x | x8 | x8 | B,,6 x |] %18

